src/assets/images/rightArrowWhite.svg

<svg fill="none" height="11" viewBox="0 0 19 11" width="19" xmlns="http://www.w3.org/2000/svg"><path clip-rule="evenodd" d="m15.584 6.2251h-14.607438c-.539062 0-.976562-.4375-.976562-.97656 0-.53907.4375-.97657.976562-.97657h14.607438l-2.6055-2.60547c-.3808-.38086-.3808-.999996 0-1.380855.3809-.3808599 1-.3808599 1.3809 0l4.1445 4.142575c.2254.22537.3174.53416.276.82765.0363.28908-.0563.59137-.2779.81298l-4.1426 4.14255c-.3809.3809-1 .3809-1.3809 0-.3808-.38083-.3808-.99997 0-1.38083z" fill="#fff" fill-rule="evenodd"/></svg>

<svg width="19" height="11" viewBox="0 0 19 11" fill="none" xmlns="http://www.w3.org/2000/svg">
<path fill-rule="evenodd" clip-rule="evenodd" d="M15.584 6.2251H0.976562C0.4375 6.2251 0 5.7876 0 5.24854C0 4.70947 0.4375 4.27197 0.976562 4.27197H15.584L12.9785 1.6665C12.5977 1.28564 12.5977 0.666504 12.9785 0.285645C13.3594 -0.0952149 13.9785 -0.0952149 14.3594 0.285645L18.5039 4.42822C18.7293 4.65359 18.8213 4.96238 18.7799 5.25587C18.8162 5.54495 18.7236 5.84724 18.502 6.06885L14.3594 10.2114C13.9785 10.5923 13.3594 10.5923 12.9785 10.2114C12.5977 9.83057 12.5977 9.21143 12.9785 8.83057L15.584 6.2251Z" fill="white"/>
</svg>
